packages/Snapp/src/BarcodeScanerIcon/index.svg

<?xml version="1.0" encoding="UTF-8"?>
<svg width="24px" height="24px" viewBox="0 0 24 24" version="1.1" xmlns="http://www.w3.org/2000/svg" xmlns:xlink="http://www.w3.org/1999/xlink">
    <title>Icons/24/ barcode_scaner_24</title>
    <g id="Icons/24/-barcode_scaner_24" stroke="none" stroke-width="1" fill="none" fill-rule="evenodd">
        <rect id="Container" fill-rule="nonzero" x="0" y="0" width="24" height="24"></rect>
        <path d="M23,16 L23,18 L23,18 C23,19.0543618 22.1841222,19.9181651 21.1492623,19.9945143 L21,20 L19,20 C18.4477153,20 18,19.5522847 18,19 C18,18.4477153 18.4477153,18 19,18 L21,18 L21,18 L21,16 C21,15.4477153 21.4477153,15 22,15 C22.5522847,15 23,15.4477153 23,16 Z M3,16 L3,18 L3,18 L5,18 C5.55228475,18 6,18.4477153 6,19 C6,19.5522847 5.55228475,20 5,20 L3,20 L3,20 C1.9456382,20 1.08183488,19.1841222 1.00548574,18.1492623 L1,18 L1,16 C1,15.4477153 1.44771525,15 2,15 C2.55228475,15 3,15.4477153 3,16 Z M9.5,7.75 L9.5,15.25 C9.5,15.6642136 9.16421356,16 8.75,16 C8.33578644,16 8,15.6642136 8,15.25 L8,7.75 C8,7.33578644 8.33578644,7 8.75,7 C9.16421356,7 9.5,7.33578644 9.5,7.75 Z M6.5,14.75 L6.5,15.25 C6.5,15.6642136 6.16421356,16 5.75,16 C5.33578644,16 5,15.6642136 5,15.25 L5,14.75 C5,14.3357864 5.33578644,14 5.75,14 C6.16421356,14 6.5,14.3357864 6.5,14.75 Z M12.5,14.75 L12.5,15.25 C12.5,15.6642136 12.1642136,16 11.75,16 C11.3357864,16 11,15.6642136 11,15.25 L11,14.75 C11,14.3357864 11.3357864,14 11.75,14 C12.1642136,14 12.5,14.3357864 12.5,14.75 Z M15.5,7.75 L15.5,15.25 C15.5,15.6642136 15.1642136,16 14.75,16 C14.3357864,16 14,15.6642136 14,15.25 L14,7.75 C14,7.33578644 14.3357864,7 14.75,7 C15.1642136,7 15.5,7.33578644 15.5,7.75 Z M19,14.75 L19,15.25 C19,15.6642136 18.6642136,16 18.25,16 C17.8357864,16 17.5,15.6642136 17.5,15.25 L17.5,14.75 C17.5,14.3357864 17.8357864,14 18.25,14 C18.6642136,14 19,14.3357864 19,14.75 Z M6.5,7.75 L6.5,12.25 C6.5,12.6642136 6.16421356,13 5.75,13 C5.33578644,13 5,12.6642136 5,12.25 L5,7.75 C5,7.33578644 5.33578644,7 5.75,7 C6.16421356,7 6.5,7.33578644 6.5,7.75 Z M12.5,7.75 L12.5,12.25 C12.5,12.6642136 12.1642136,13 11.75,13 C11.3357864,13 11,12.6642136 11,12.25 L11,7.75 C11,7.33578644 11.3357864,7 11.75,7 C12.1642136,7 12.5,7.33578644 12.5,7.75 Z M19,7.75 L19,12.25 C19,12.6642136 18.6642136,13 18.25,13 C17.8357864,13 17.5,12.6642136 17.5,12.25 L17.5,7.75 C17.5,7.33578644 17.8357864,7 18.25,7 C18.6642136,7 19,7.33578644 19,7.75 Z M21,3 C22.0543618,3 22.9181651,3.81587779 22.9945143,4.85073766 L23,5 L23,7 C23,7.55228475 22.5522847,8 22,8 C21.4477153,8 21,7.55228475 21,7 L21,5 L21,5 L19,5 C18.4477153,5 18,4.55228475 18,4 C18,3.44771525 18.4477153,3 19,3 L21,3 L21,3 Z M6,4 C6,4.55228475 5.55228475,5 5,5 L3,5 L3,5 L3,7 C3,7.55228475 2.55228475,8 2,8 C1.44771525,8 1,7.55228475 1,7 L1,5 L1,5 C1,3.9456382 1.81587779,3.08183488 2.85073766,3.00548574 L3,3 L5,3 C5.55228475,3 6,3.44771525 6,4 Z" id="Shape" fill="#404040" fill-rule="nonzero"></path>
    </g>
</svg>

<svg viewBox="0 0 24 24" xmlns="http://www.w3.org/2000/svg" fill="currentColor" focusable="false">
  <g fill-rule="evenodd">
    <path d="M0 0h24v24H0z"/>
    <path d="M23 16v2a2 2 0 01-1.85 1.995L21 20h-2a1 1 0 010-2h2v-2a1 1 0 012 0zM3 16v2h2a1 1 0 010 2H3a2 2 0 01-1.995-1.85L1 18v-2a1 1 0 012 0zm6.5-8.25v7.5a.75.75 0 11-1.5 0v-7.5a.75.75 0 011.5 0zm-3 7v.5a.75.75 0 11-1.5 0v-.5a.75.75 0 111.5 0zm6 0v.5a.75.75 0 11-1.5 0v-.5a.75.75 0 111.5 0zm3-7v7.5a.75.75 0 11-1.5 0v-7.5a.75.75 0 111.5 0zm3.5 7v.5a.75.75 0 11-1.5 0v-.5a.75.75 0 111.5 0zm-12.5-7v4.5a.75.75 0 11-1.5 0v-4.5a.75.75 0 011.5 0zm6 0v4.5a.75.75 0 11-1.5 0v-4.5a.75.75 0 111.5 0zm6.5 0v4.5a.75.75 0 11-1.5 0v-4.5a.75.75 0 111.5 0zM21 3a2 2 0 011.995 1.85L23 5v2a1 1 0 01-2 0V5h-2a1 1 0 010-2h2zM6 4a1 1 0 01-1 1H3v2a1 1 0 11-2 0V5a2 2 0 011.85-1.995L3 3h2a1 1 0 011 1z" fill-rule="nonzero"/>
  </g>
</svg>
